svgs/solid/loader.svg

<svg xmlns="http://www.w3.org/2000/svg" viewBox="0 0 512 512"><!-- Font Awesome Pro 6.0.0-alpha2 by @fontawesome - https://fontawesome.com License - https://fontawesome.com/license (Commercial License) --><path d="M256 0C238.312 0 224 14.328 224 32V96C224 113.672 238.312 128 256 128S288 113.672 288 96V32C288 14.328 273.688 0 256 0ZM256 384C238.312 384 224 398.328 224 416V480C224 497.672 238.312 512 256 512S288 497.672 288 480V416C288 398.328 273.688 384 256 384ZM480 224H416C398.312 224 384 238.328 384 256S398.312 288 416 288H480C497.688 288 512 273.672 512 256S497.688 224 480 224ZM128 256C128 238.328 113.688 224 96 224H32C14.312 224 0 238.328 0 256S14.312 288 32 288H96C113.688 288 128 273.672 128 256ZM369.125 174.859C377.312 174.859 385.5 171.734 391.75 165.5L437.031 120.25C449.531 107.75 449.531 87.484 437.031 74.984S404.281 62.5 391.781 74.969L346.5 120.219C333.999 132.719 333.999 152.984 346.5 165.484C352.75 171.734 360.938 174.859 369.125 174.859ZM120.25 346.5L74.969 391.75C62.469 404.25 62.469 424.516 74.969 437.016C81.219 443.266 89.406 446.391 97.594 446.391S113.969 443.266 120.219 437.031L165.5 391.781C177.999 379.281 177.999 359.016 165.5 346.516C153 334.016 132.75 334.031 120.25 346.5ZM391.75 346.5C379.25 334.031 359 334.016 346.5 346.516C333.999 359.016 333.999 379.281 346.5 391.781L391.781 437.031C398.031 443.266 406.219 446.391 414.406 446.391S430.781 443.266 437.031 437.016C449.531 424.516 449.531 404.25 437.031 391.75L391.75 346.5ZM120.219 74.969C107.719 62.5 87.469 62.484 74.969 74.984S62.469 107.75 74.969 120.25L120.25 165.5C126.5 171.734 134.688 174.859 142.875 174.859S159.25 171.734 165.5 165.484C177.999 152.984 177.999 132.719 165.5 120.219L120.219 74.969Z"/></svg>

<svg xmlns="http://www.w3.org/2000/svg" viewBox="0 0 512 512"><!--! Font Awesome Pro 6.4.0 by @fontawesome - https://fontawesome.com License - https://fontawesome.com/license (Commercial License) Copyright 2023 Fonticons, Inc. --><path d="M288 32c0-17.7-14.3-32-32-32s-32 14.3-32 32V96c0 17.7 14.3 32 32 32s32-14.3 32-32V32zm0 384c0-17.7-14.3-32-32-32s-32 14.3-32 32v64c0 17.7 14.3 32 32 32s32-14.3 32-32V416zM0 256c0 17.7 14.3 32 32 32H96c17.7 0 32-14.3 32-32s-14.3-32-32-32H32c-17.7 0-32 14.3-32 32zm416-32c-17.7 0-32 14.3-32 32s14.3 32 32 32h64c17.7 0 32-14.3 32-32s-14.3-32-32-32H416zM75 75c-12.5 12.5-12.5 32.8 0 45.3l45.3 45.3c12.5 12.5 32.8 12.5 45.3 0s12.5-32.8 0-45.3L120.2 75C107.7 62.5 87.5 62.5 75 75zM391.8 346.5c-12.5-12.5-32.8-12.5-45.3 0s-12.5 32.8 0 45.3L391.8 437c12.5 12.5 32.8 12.5 45.3 0s12.5-32.8 0-45.3l-45.3-45.3zM75 437c12.5 12.5 32.8 12.5 45.3 0l45.3-45.3c12.5-12.5 12.5-32.8 0-45.3s-32.8-12.5-45.3 0L75 391.8c-12.5 12.5-12.5 32.8 0 45.3zM346.5 120.2c-12.5 12.5-12.5 32.8 0 45.3s32.8 12.5 45.3 0L437 120.2c12.5-12.5 12.5-32.8 0-45.3s-32.8-12.5-45.3 0l-45.3 45.3z"/></svg>
